X:1
T:Zenica, 87.87.87.88
T:Zenica, 87.87.87.88
T:Arranged by J. F. Lesley, 1914
T:Public Domain Courtesy of the Cyber Hymnal™
C:Arranged by J. F. Lesley, 1914
Z:Public Domain
Z:Courtesy of the Cyber Hymnal™
%%score ( 1 2 ) ( 3 4 )
L:1/8
Q:1/4=108
M:none
K:F
V:1 treble 
V:2 treble 
V:3 bass 
V:4 bass 
V:1
 [CF]3 [CG] [FA]2 [Fc]2 | [Fd]3 [Fc] [FA] [Fc]3 | [CF]3 [FA] [Fc]2 [FA]2 | [EG]3 [EG] F2 z2 | %4
 [CF]3 [CG] [FA]2 [Fc]2 | [Fd]3 [Fc] [FA] [Fc]3 | [CF]3 [FA] [Fc]2 [FA]2 | [EG]3 [EG] F2 z2 | %8
 [Fc]3 [Fc] [Fd] [Af]3 | ([Af]3 [Fc]) [Fd] [Fc]3 | [Fc]3 [Fc] [Fd] [Af]3 | [Bf]3 [Bd] [Ac]2 z2 | %12
 [CF]3 [CG] [FA]2 [Fc]2 | [Fd]3 [Fc] [FA] [Fc]3 | [CF]3 [CG] [FA] [Fc]2 [FA] | [CEG]3 [CF] [CF]3 |] %16
V:2
 x8 | x8 | x8 | x4 F2 x2 | x8 | x8 | x8 | x4 F2 x2 | x8 | x8 | x8 | x8 | x8 | x8 | x8 | x7 |] %16
V:3
 [F,A,]3 [F,B,] [F,C]2 [F,A,]2 | [F,B,]3 [F,A,] [F,C] [F,A,]3 | [F,A,]3 [F,C] [F,A,]2 [F,C]2 | %3
 [C,B,]3 [C,B,] [F,A,]2 z2 | [F,A,]3 [F,B,] [F,C]2 [F,A,]2 | [F,B,]3 [F,A,] [F,C] [F,A,]3 | %6
 [F,A,]3 [F,C] [F,A,]2 [F,C]2 | [C,B,]3 [C,B,] [F,A,]2 z2 | [F,A,]3 [F,A,] [F,A,] [F,C]3 | %9
 (C3 A,) [F,B,] [F,A,]3 | [F,A,]3 [F,A,] [F,A,] [F,C]3 | [B,,D]3 [B,,F] [F,F]2 z2 | %12
 [F,A,]3 [F,B,] [F,C]2 [F,A,]2 | [F,B,]3 [F,A,] [F,C] [F,A,]3 | %14
 [F,A,]3 [F,B,] [F,C] [F,A,]2 [F,C] | [C,B,]3 [F,A,] [F,A,]3 |] %16
V:4
 x8 | x8 | x8 | x8 | x8 | x8 | x8 | x8 | x8 | F,4 x4 | x8 | x8 | x8 | x8 | x8 | x7 |] %16

